resources/svg/regular/plug.svg

<svg xmlns="http://www.w3.org/2000/svg" fill="currentColor" stroke="none" viewBox="0 0 24 24"><path d="M3 8h2v5c0 2.206 1.794 4 4 4h2v5h2v-5h2c2.206 0 4-1.794 4-4V8h2V6H3v2zm4 0h10v5c0 1.103-.897 2-2 2H9c-1.103 0-2-.897-2-2V8zm0-6h2v3H7zm8 0h2v3h-2z"/></svg>

<svg xmlns="http://www.w3.org/2000/svg" fill="currentColor" stroke="none" viewBox="0 0 24 24"><path d="M3 8h2v5c0 2.206 1.794 4 4 4h2v5h2v-5h2c2.206 0 4-1.794 4-4V8h2V6H3V8zM7 8h10v5c0 1.103-.897 2-2 2H9c-1.103 0-2-.897-2-2V8zM7 2H9V5H7zM15 2H17V5H15z"/></svg>
